projects/in-toto/horizontal/white/in-toto-horizontal-white.svg

<svg id="Layer_1" data-name="Layer 1" xmlns="http://www.w3.org/2000/svg" viewBox="0 0 3103.42617 946.60274"><defs><style>.cls-1{fill:#fff;}</style></defs><title>in-toto-horizontal-white</title><path class="cls-1" d="M1267.13672,303.55637q-.28509-.00165-.57031,0a48.19834,48.19834,0,1,0,.57031,0Z"/><rect class="cls-1" x="1230.74683" y="444.26364" width="72.77979" height="287.48273"/><path class="cls-1" d="M1541.88562,436.98667c-60.64954,0-86.12317,49.12634-86.12317,49.12634V444.26364h-67.92834V731.74637h72.78064V541.911s19.4082-36.99688,57.01123-36.99688c31.53833,0,57.01111,17.58886,57.01111,58.83124v168.001h72.78076v-186.197C1647.41785,476.40818,1597.68445,436.98667,1541.88562,436.98667Z"/><rect class="cls-1" x="1703.82202" y="547.37046" width="161.93628" height="69.13965"/><path class="cls-1" d="M2065.90381,671.096c-19.40808,0-37.603-10.31012-37.603-45.48779V509.7667h86.72949V444.26383h-86.72949V358.74747H1955.52v85.51617h-56.404V509.7667h56.40393V637.1323c0,61.2558,42.45544,101.89288,98.25354,101.89288,41.84839,0,69.14209-18.8028,69.14209-18.8028L2096.229,660.78592S2082.27954,671.096,2065.90381,671.096Z"/><path class="cls-1" d="M2308.5022,436.98667c-85.51636,0-153.44556,66.10833-153.44556,151.01922,0,84.30408,67.9292,151.01929,153.44556,151.01929S2461.94751,672.31,2461.94751,588.00589C2461.94751,503.09482,2394.01855,436.98667,2308.5022,436.98667Zm0,234.10937c-49.12622,0-79.45142-38.20923-79.45142-83.09015,0-44.8825,30.3252-83.09173,79.45142-83.09173s79.45141,38.20923,79.45141,83.09173C2387.95361,632.88681,2357.62842,671.096,2308.5022,671.096Z"/><path class="cls-1" d="M2659.06494,671.096c-19.408,0-37.60205-10.31012-37.60205-45.48779V509.7667h86.73V444.26383h-86.73022V358.74747h-72.77979v85.51617h-56.405V509.7667h56.405V637.1323c0,61.2558,42.45459,101.89288,98.25269,101.89288,41.84912,0,69.14135-18.8028,69.14135-18.8028l-26.68676-59.43646S2675.44165,671.096,2659.06494,671.096Z"/><path class="cls-1" d="M2901.66357,436.98667c-85.51635,0-153.44555,66.10833-153.44555,151.01922,0,84.30408,67.9292,151.01929,153.44555,151.01929,85.51612,0,153.44532-66.71521,153.44532-151.01929C3055.10889,503.09482,2987.17969,436.98667,2901.66357,436.98667Zm0,234.10937c-49.12646,0-79.45166-38.20923-79.45166-83.09015,0-44.8825,30.3252-83.09173,79.45166-83.09173,49.12623,0,79.45142,38.20923,79.45142,83.09173C2981.115,632.88681,2950.7898,671.096,2901.66357,671.096Z"/><path class="cls-1" d="M993.34113,55.005c-.90223-.38379-1.8039-.757-2.70557-1.1319.80206.38507,1.59344.78577,2.38812,1.18122Z"/><path class="cls-1" d="M1071.99988,116.75858c-23.34741-24.991-48.85394-46.71478-78.97626-61.70422-.79468-.39545-1.58606-.79615-2.38812-1.18122-2.4895-1.195-5.00372-2.35541-7.56842-3.44629C899.015,14.67722,817.2002,19.84964,738.76538,67.52469a212.47183,212.47183,0,0,0-25.366,18.47431C689.636,105.80826,576.76733,185.89414,595.65,225.24039c9.2215,19.20868,60.45923,66.3877,81.7323,66.3172,21.75977-.07294,109.49347-81.095,134.87647-93.76953,51.91827-25.918,113.22388-26.2511,149.01208,18.65661,37.00208,46.43,31.08338,113.32349-13.92175,150.93342C885.85663,418.7714,826.2464,472.577,762.29535,520.87955c-24.60846,18.58649-48.9845,26.46887-71.99725,26.25073,49.59649-16.54718,45.80059-112.45581,15.55859-165.18194-39.74994-69.30335-98.80829-112.414-177.22833-127.38886C449.712,239.48966,378.51672,258.178,316.22668,308.77842c-53.59667,43.53137-109.51043,84.51422-159.70751,131.934-31.708,29.94983-61.6991,62.12963-82.01178,97.63122-36.2262,63.32849-52.28833,116.32184-29.14,191.80927,0,0,28.32605,69.56353,57.23016,98.88116C129.21094,856.022,153.93427,880.6,188.648,895.36582,272.7,931.11545,354.515,925.943,432.94965,878.268a212.46428,212.46428,0,0,0,25.366-18.47431c23.76331-19.80926,136.63221-99.89514,117.74915-139.24139-9.22119-19.20868-60.45892-66.3877-81.732-66.3172-21.75976.07294-109.49353,81.09509-134.87658,93.76953-51.91846,25.918-113.2237,26.2511-149.01221-18.65661-37.002-46.43-31.08319-113.32349,13.92194-150.93342C285.85846,527.02115,345.46881,473.21549,409.4198,424.913c31.02808-23.43518,61.68671-29.85919,89.70807-24.46857h0c-44.11823,43.46149-54.20538,113.56378-22.9928,167.978C515.88013,637.72574,571.796,677.47422,650.216,692.45157l4.843.7956c74.1557,11.0498,141.30658-8.20539,200.42938-56.233C909.08521,593.48282,964.999,552.5,1015.19592,505.08017c31.708-29.94983,61.6991-62.12964,82.012-97.63122,36.226-63.32843,52.2882-116.32178,29.13977-191.80921C1126.34766,215.63974,1104.25793,151.28751,1071.99988,116.75858Z"/></svg>

<svg xmlns="http://www.w3.org/2000/svg" role="img" viewBox="-27.90 -32.90 3140.80 1010.80"><defs><style>.cls-1{fill:#fff}</style></defs><path d="M1267.137 303.556h-.57a48.198 48.198 0 10.57 0zm-36.39 140.708h72.78v287.483h-72.78zm311.139-7.277c-60.65 0-86.124 49.126-86.124 49.126v-41.85h-67.928v287.483h72.78V541.911s19.409-36.997 57.012-36.997c31.538 0 57.011 17.589 57.011 58.831v168.001h72.78V545.55c0-69.14-49.733-108.562-105.531-108.562zm161.936 110.383h161.936v69.14h-161.936zm362.082 123.726c-19.408 0-37.603-10.31-37.603-45.488V509.767h86.73v-65.503h-86.73v-85.517h-72.781v85.517h-56.404v65.503h56.404v127.365c0 61.256 42.455 101.893 98.253 101.893 41.849 0 69.143-18.803 69.143-18.803l-26.687-59.436s-13.95 10.31-30.325 10.31zm242.598-234.109c-85.516 0-153.445 66.108-153.445 151.019 0 84.304 67.929 151.02 153.445 151.02s153.446-66.716 153.446-151.02c0-84.911-67.93-151.02-153.446-151.02zm0 234.109c-49.126 0-79.451-38.21-79.451-83.09 0-44.883 30.325-83.092 79.451-83.092s79.452 38.21 79.452 83.092c0 44.88-30.326 83.09-79.452 83.09zm350.563 0c-19.408 0-37.602-10.31-37.602-45.488V509.767h86.73v-65.503h-86.73v-85.517h-72.78v85.517h-56.405v65.503h56.405v127.365c0 61.256 42.454 101.893 98.253 101.893 41.849 0 69.14-18.803 69.14-18.803l-26.686-59.436s-13.948 10.31-30.325 10.31zm242.599-234.109c-85.517 0-153.446 66.108-153.446 151.019 0 84.304 67.93 151.02 153.446 151.02 85.516 0 153.445-66.716 153.445-151.02 0-84.911-67.93-151.02-153.445-151.02zm0 234.109c-49.127 0-79.452-38.21-79.452-83.09 0-44.883 30.325-83.092 79.452-83.092 49.126 0 79.451 38.21 79.451 83.092 0 44.88-30.325 83.09-79.451 83.09zM993.341 55.005c-.902-.384-1.804-.757-2.705-1.132.802.385 1.593.786 2.388 1.181z" class="cls-1"/><path d="M1072 116.759c-23.348-24.991-48.854-46.715-78.976-61.705-.795-.395-1.586-.796-2.388-1.18a183.093 183.093 0 00-7.569-3.447C899.015 14.677 817.2 19.85 738.765 67.525A212.472 212.472 0 00713.4 85.999c-23.763 19.81-136.632 99.895-117.749 139.241 9.222 19.21 60.46 66.388 81.732 66.318 21.76-.073 109.494-81.095 134.877-93.77 51.918-25.918 113.224-26.251 149.012 18.657 37.002 46.43 31.083 113.323-13.922 150.933-61.492 51.393-121.103 105.199-185.054 153.502-24.608 18.586-48.984 26.468-71.997 26.25 49.597-16.547 45.8-112.456 15.559-165.182-39.75-69.303-98.809-112.414-177.229-127.389-78.916-15.07-150.111 3.619-212.401 54.22-53.597 43.53-109.51 84.514-159.708 131.933-31.708 29.95-61.699 62.13-82.012 97.632-36.226 63.328-52.288 116.321-29.14 191.809 0 0 28.326 69.563 57.23 98.881 26.614 26.988 51.337 51.566 86.051 66.332 84.052 35.75 165.867 30.577 244.302-17.098a212.464 212.464 0 0025.366-18.474c23.763-19.81 136.632-99.895 117.749-139.242-9.221-19.208-60.46-66.387-81.732-66.317-21.76.073-109.494 81.095-134.877 93.77-51.918 25.918-113.223 26.25-149.012-18.657-37.002-46.43-31.083-113.323 13.922-150.933 61.492-51.394 121.103-105.2 185.054-153.502 31.028-23.435 61.687-29.86 89.708-24.469-44.118 43.462-54.206 113.564-22.993 167.978 39.745 69.304 95.661 109.052 174.081 124.03l4.843.795c74.156 11.05 141.307-8.205 200.43-56.233C909.086 593.483 965 552.5 1015.197 505.08c31.708-29.95 61.699-62.13 82.012-97.631 36.226-63.328 52.288-116.322 29.14-191.81 0 0-22.09-64.351-54.348-98.88z" class="cls-1"/></svg>
